X: 1
T: Gigue de La Bolduc
S: played by Philippe Bruneau in the video, La Gigue Quebecoise
Z: Jeff Farmer 2007-9-?
Z: abc by John Chambers 2011-8-10, written-out repeats converted to repeated phrases.
R: reel
Z: 2011 John Chambers <jc:trillian.mit.edu>
M: C|
L: 1/8
K: D
|: c |\
dfaf b2af | dfad ceec | dfaf b2af | gfeg fdd :|
|: f |\
e2e2 e2e2 | eABc BAdf | e2e2 e2e2 |1 eABc BAd :|2 eABc B2AA |]
